static/assets/infographics/Icon_guitar.svg

<svg id='Layer_1' xmlns='http://www.w3.org/2000/svg' viewBox='0 0 51.5 51.5'><style>.st0{fill:#6d6e71}</style><path class='st0' d='M42.9 26.7c-1.3-.4-2.9-.2-4-1.2-1.2-1.1-1.8-2.6-2.7-3.9-.9-1.3-2.3-2-3.8-2.6-1.8-.6-3.9-.7-5.7-.2-.3.1-3.4 1.4-3.5 1.3l-9.5-9.5c.2-1.1-.2-2.4-1-3.2l-4.1-4C7.2 2 4.8 2 3.3 3.4c-1.4 1.4-1.4 3.8 0 5.3l4.2 4.2c.9.9 2.2 1.2 3.3 1l9.4 9.4c-.1-.1-1.4 3-1.4 3.3-.3 1.2-.4 2.4-.2 3.7.4 3.5 2.6 6.6 5.7 8.2 1.8.9 1.7 1.6 2.1 3.5.6 2.2 1.7 4.3 3.3 5.9 5 5 13.1 5 18.1 0 5-5 5-13.1 0-18.1-1.4-1.4-3.1-2.5-4.9-3.1zm-11.6 9.6c-2.8 0-5.1-2.3-5.1-5.1s2.3-5.1 5.1-5.1 5.1 2.3 5.1 5.1-2.3 5.1-5.1 5.1zm11.8 1.4l-5.5 5.5c-.2.2-.5.3-.8.3-.3 0-.5-.1-.8-.3-.4-.4-.4-1.1 0-1.5l5.5-5.5c.4-.4 1.1-.4 1.5 0 .5.4.5 1.1.1 1.5zm0 0'/><path class='st0' d='M31.3 27.1c-2.2 0-4.1 1.8-4.1 4.1 0 2.2 1.8 4.1 4.1 4.1 2.2 0 4.1-1.8 4.1-4.1-.1-2.2-1.9-4.1-4.1-4.1zm-3 4.1c0-1.6 1.3-3 3-3 1.6 0 3 1.3 3 3 0 1.6-1.3 3-3 3s-3-1.4-3-3zm0 0M10.7.1c-.1-.1-.3-.1-.4 0L9.1 2c-.1.1 0 .3.1.5l.6.5c.1.1.4.1.5.1L12.1 2c.1-.1.2-.3 0-.4L10.7.1zm0 0M1.9 12.1L3 10.3c.2-.2.1-.4 0-.5l-.5-.6c-.2-.1-.4-.1-.5 0L.2 10.3c-.1.1-.2.3 0 .4l1.5 1.5c0 .1.2.1.2-.1zm0 0M14 3.9l-1.1 1.8c-.1.1-.1.4.1.5l.6.6c.1.1.4.1.5.1l1.8-1.1c.1-.1.2-.3 0-.4l-1.5-1.5c-.1-.2-.3-.2-.4 0zm0 0M5.7 15.9L6.8 14c.1-.1.1-.4-.1-.5l-.6-.6c-.1-.1-.4-.1-.5-.1L3.9 14c-.1.1-.2.3 0 .4l1.5 1.5c0 .1.2.1.3 0zm0 0'/></svg>

<?xml version="1.0" encoding="utf-8"?>
<!-- Generator: Adobe Illustrator 19.2.0, SVG Export Plug-In . SVG Version: 6.00 Build 0)  -->
<svg version="1.1" id="Layer_1" xmlns="http://www.w3.org/2000/svg" xmlns:xlink="http://www.w3.org/1999/xlink" x="0px" y="0px"
	 viewBox="0 0 51.5 51.5" style="enable-background:new 0 0 51.5 51.5;" xml:space="preserve">
<style type="text/css">
	.st0{fill:#6D6E71;}
</style>
<g>
	<path class="st0" d="M42.9,26.7c-1.3-0.4-2.9-0.2-4-1.2c-1.2-1.1-1.8-2.6-2.7-3.9c-0.9-1.3-2.3-2-3.8-2.6c-1.8-0.6-3.9-0.7-5.7-0.2
		c-0.3,0.1-3.4,1.4-3.5,1.3c-2.6-2.6-6.9-6.9-9.5-9.5c0.2-1.1-0.2-2.4-1-3.2L8.6,3.4c-1.4-1.4-3.8-1.4-5.3,0c-1.4,1.4-1.4,3.8,0,5.3
		l4.2,4.2c0.9,0.9,2.2,1.2,3.3,1l9.4,9.4c-0.1-0.1-1.4,3-1.4,3.3c-0.3,1.2-0.4,2.4-0.2,3.7c0.4,3.5,2.6,6.6,5.7,8.2
		c1.8,0.9,1.7,1.6,2.1,3.5c0.6,2.2,1.7,4.3,3.3,5.9c5,5,13.1,5,18.1,0c5-5,5-13.1,0-18.1C46.4,28.4,44.7,27.3,42.9,26.7L42.9,26.7z
		 M31.3,36.3c-2.8,0-5.1-2.3-5.1-5.1c0-2.8,2.3-5.1,5.1-5.1c2.8,0,5.1,2.3,5.1,5.1C36.4,34,34.1,36.3,31.3,36.3L31.3,36.3z
		 M43.1,37.7l-5.5,5.5c-0.2,0.2-0.5,0.3-0.8,0.3c-0.3,0-0.5-0.1-0.8-0.3c-0.4-0.4-0.4-1.1,0-1.5l5.5-5.5c0.4-0.4,1.1-0.4,1.5,0
		C43.5,36.6,43.5,37.3,43.1,37.7L43.1,37.7z M43.1,37.7"/>
	<path class="st0" d="M31.3,27.1c-2.2,0-4.1,1.8-4.1,4.1c0,2.2,1.8,4.1,4.1,4.1c2.2,0,4.1-1.8,4.1-4.1C35.3,29,33.5,27.1,31.3,27.1
		L31.3,27.1z M28.3,31.2c0-1.6,1.3-3,3-3c1.6,0,3,1.3,3,3c0,1.6-1.3,3-3,3C29.6,34.2,28.3,32.8,28.3,31.2L28.3,31.2z M28.3,31.2"/>
	<path class="st0" d="M10.7,0.1c-0.1-0.1-0.3-0.1-0.4,0L9.1,2C9,2.1,9.1,2.3,9.2,2.5L9.8,3c0.1,0.1,0.4,0.1,0.5,0.1L12.1,2
		c0.1-0.1,0.2-0.3,0-0.4L10.7,0.1z M10.7,0.1"/>
	<path class="st0" d="M1.9,12.1l1.1-1.8C3.2,10.1,3.1,9.9,3,9.8L2.5,9.2C2.3,9.1,2.1,9.1,2,9.2l-1.8,1.1c-0.1,0.1-0.2,0.3,0,0.4
		l1.5,1.5C1.7,12.3,1.9,12.3,1.9,12.1L1.9,12.1z M1.9,12.1"/>
	<path class="st0" d="M14,3.9l-1.1,1.8c-0.1,0.1-0.1,0.4,0.1,0.5l0.6,0.6c0.1,0.1,0.4,0.1,0.5,0.1l1.8-1.1c0.1-0.1,0.2-0.3,0-0.4
		l-1.5-1.5C14.3,3.7,14.1,3.7,14,3.9L14,3.9z M14,3.9"/>
	<path class="st0" d="M5.7,15.9L6.8,14c0.1-0.1,0.1-0.4-0.1-0.5l-0.6-0.6c-0.1-0.1-0.4-0.1-0.5-0.1L3.9,14c-0.1,0.1-0.2,0.3,0,0.4
		l1.5,1.5C5.4,16,5.6,16,5.7,15.9L5.7,15.9z M5.7,15.9"/>
</g>
</svg>
